!!!OTL: "Die Elftausend" ES STANDEN VIEL DER SCHIFFE
!!!ARE: Europa, Mitteleuropa, Deutschland, Niederrhein
!!!SCT: Z1021
!!!YEM: Copyright 1995, estate of Helmut Schaffrath.
**kern
*ICvox
*Ivox
*M4/4
*k[b-e-]
*g:
{4g
=1
4g
4dd
8dd
8cc
4b-
=2
4a
4a
4r}
{4a
=3
8b-
8cc
4dd
8dd
8cc
4b-
=4
2a
4r}
{4g
=5
4dd
4dd
8ffn
8ee
8dd
8cc#
=6
2dd
4cc}
{4a
=7
4dd
4dd
8ffn
8ee
8dd
8cc#
=8
2dd
8cc
8b-}
{4a
=9
4b-
8a
8g
4dd
4dd
=10
2g
4r}
==
!!!AGN: Romanze, Ballade, Tod, geistlich, Sage (Hl. Ursula)
!!!ONB: ESAC (Essen Associative Code) Database: ZUCCAL
!!!AMT: simple quadruple
!!!AIN: vox
!!!EED: Helmut Schaffrath
!!!EEV: 1.0
*-
